X: 27394
T: Mockingbird Hill
R: waltz
M: 3/4
K: Gmajor
A2|:D3 FAd|f3 dAF|G3 Bdg|b4b2|a3 gec|
A3 ceg|f3 edB|A4 A2|D3 FAd|f3 dAF|
G3 Bdg|b4b2|a3 g ec|A3 gfe|d3dd2|d4 A2:|
|:f3ff2|g2f2e2|d2G2B2|A4a2|a3 gec|
A3 ceg|f3 edB|A4 A2|f3ff2|g2f2e2|d2G2B2|
A4a2|a3 gec|A3 gfe|d3dd2|1 d4 A2:|2 d2c2=c2||
|:B6|(3BcBA2G2|F4A2|c6|d3ed2|c2 B2 A2|
g2(3fgfe2|d4D2|B6|(3BcBA2G2|F4A2|
c6|d3ed2|c2 B2 A2|G3GG2|1 G4D2:|2 G4A2||

